X:159
%%musicspace -15
%%topspace -50
T:Sportsman's Hornpipe
M:4/4
L:1/8
K:Ador
A>B | "Am"c2 c>c "G"B3A | "G"G>AB>c "Em"d>BG>B | "Am"c2c>c "G"B>cB>G | "Am"E2 A2 A3B | 
"Am"c2 c>c "G"B3A | "G"G>AB>c "D"d2 (3def | "G"g>fg>d "Em"e>dB>G | "Am"E2 A2 A2 ::
c>B "Am"A>Bc>d e>fg>e | "D"a>fd>f "Em"e>dc>B | "Am"A>Bc>d e>fg>e | "D"a>fd>f "Em"e2 (3efg | 
"F"a2 a2 "C"g3e | "C"c2c>e "G"d>BG>B | "Am"c>Bc>A "G"B>cB>G | "Am"e2 A2 A2 :|

